public/icons/img/support.svg

<?xml version="1.0" encoding="UTF-8"?>
<svg width="64px" height="60px" viewBox="0 0 64 60" version="1.1" xmlns="http://www.w3.org/2000/svg" xmlns:xlink="http://www.w3.org/1999/xlink">
    <title>UI Elements/Icon / Help / Support</title>
    <defs>
        <path d="M4,-2.39554408e-13 L45.5,-2.39554408e-13 C47.709139,-2.43884439e-13 49.5,1.790861 49.5,4 L49.5,29.1875 C49.5,30.7408009 48.2408009,32 46.6875,32 L44.875,32 C44.3227153,32 43.875,32.4477153 43.875,33 L43.875,39.0628488 C43.875,39.6151335 43.4272847,40.0628488 42.875,40.0628488 C42.5987784,40.0628488 42.3348593,39.948595 42.1458314,39.7471829 L35.1712565,32.3156659 C34.9822286,32.1142538 34.7183095,32 34.4420879,32 L4,32 C1.790861,32 2.705415e-16,30.209139 0,28 L0,4 C-2.705415e-16,1.790861 1.790861,-2.39148596e-13 4,-2.39554408e-13 Z" id="path-1"></path>
        <path d="M39.2121483,38.8562313 C39.104598,38.8665834 39.0025993,38.7870598 38.9242607,38.7042618 C38.8459222,38.6214638 38.8021046,38.5046608 38.8060883,38.384898 C38.7569614,37.1961643 38.7941406,36.3717363 39.0105668,35.2081353 C39.1367032,34.6344727 39.4009171,34.1110756 39.7753598,33.6941142 C40.1152678,33.2934285 40.4817226,32.9371036 40.849537,32.5585983 C41.2173514,32.180093 41.6554928,31.7631316 42.0697387,31.3846263 C42.884974,30.6276158 42.7867406,29.3102281 41.7670099,28.6892523 C41.1761478,28.3314475 40.4764132,28.2693386 39.841737,28.5192202 C39.2070608,28.7676143 38.6958732,29.3043159 38.4369653,29.9947852 C38.3533173,30.2269149 38.2842718,30.4649645 38.2324902,30.7074349 C38.1514969,31.0371471 38.0147383,31.1539576 37.7093378,31.1125492 L35.2861677,30.7872693 C35.1600279,30.781357 35.0418589,30.7133434 34.9648459,30.6024527 C34.8878363,30.491562 34.8586247,30.3481426 34.8838526,30.210624 C34.9967123,29.008567 35.458773,27.8804698 36.2023217,26.9977576 C36.9445448,26.1165595 37.9270829,25.5295735 38.9972832,25.3284736 C40.4299274,24.9751049 41.9263383,25.1288726 43.2767248,25.7676154 C44.4902983,26.3205738 45.4356844,27.4206237 45.8764771,28.7956577 C46.3518044,30.1440828 46.1353918,31.6714274 45.3121618,32.7922951 C44.7306133,33.5788669 44.0733672,34.2929928 43.3550396,34.9243396 C43.1266622,35.1431649 42.910236,35.3782432 42.6752236,35.5941047 C42.3047919,35.9312091 42.097652,36.4427893 42.1135936,36.9750434 C42.1135936,37.5546107 42.0830155,37.9002073 42.0697387,38.4782985 C42.0777311,38.5737698 42.0520737,38.654525 41.9927665,38.720564 C41.9038058,38.8196264 41.778995,38.8684158 41.6541876,38.8536313 L40.4578814,38.8536313 L39.2121483,38.8562313 Z M42.75,42.8569464 C42.75,43.550618 42.3386658,44.1746961 41.7085878,44.4411737 C41.07716,44.7063281 40.3521536,44.5590197 39.8696821,44.0689004 C39.3872106,43.5787639 39.2422026,42.8409023 39.5032305,42.2007799 C39.7642383,41.5606576 40.3798593,41.1428571 41.0626828,41.1428571 C41.5095519,41.1428571 41.9393116,41.3236423 42.2556836,41.6450268 C42.5720555,41.9664112 42.75,42.402978 42.75,42.8569807 L42.75,42.8569464 Z" id="path-3"></path>
        <filter x="-8.9%" y="-5.1%" width="117.8%" height="120.6%" filterUnits="objectBoundingBox" id="filter-5">
            <feOffset dx="0" dy="2" in="SourceAlpha" result="shadowOffsetOuter1"></feOffset>
            <feColorMatrix values="0 0 0 0 0   0 0 0 0 0   0 0 0 0 0  0 0 0 0.1 0" type="matrix" in="shadowOffsetOuter1"></feColorMatrix>
        </filter>
    </defs>
    <g id="Iconography-&amp;-Interface-Details" stroke="none" stroke-width="1" fill="none" fill-rule="evenodd">
        <g id="Icons" transform="translate(-951.000000, -370.000000)">
            <g id="UI-Elements/Icon-/-Help-/-Support" transform="translate(947.000000, 368.000000)">
                <rect id="Rectangle" x="0" y="0" width="72" height="64"></rect>
                <g id="Group" transform="translate(4.500000, 2.285714)">
                    <g id="Path-9">
                        <mask id="mask-2" fill="white">
                            <use xlink:href="#path-1"></use>
                        </mask>
                        <use id="Mask" fill="#004B2E" transform="translate(24.750000, 19.938793) scale(-1, 1) translate(-24.750000, -19.938793) " xlink:href="#path-1"></use>
                    </g>
                    <path d="M19.625,16 L49.5,16 L49.5,16 L49.5,32 L14.625,32 L14.625,21 C14.625,18.2385763 16.8635763,16 19.625,16 Z" id="Path-9" fill="#000000" opacity="0.15"></path>
                    <path d="M20.875,18.2857143 L59,18.2857143 C61.209139,18.2857143 63,20.0765753 63,22.2857143 L63,48.0535714 C63,49.9175325 61.488961,51.4285714 59.625,51.4285714 L57.25,51.4285714 C56.6977153,51.4285714 56.25,51.8762867 56.25,52.4285714 L56.25,58.1300739 C56.25,58.6823586 55.8022847,59.1300739 55.25,59.1300739 C54.982054,59.1300739 54.7253163,59.0225435 54.5373475,58.8315912 L47.5438189,51.7270542 C47.3558502,51.5361018 47.0991125,51.4285714 46.8311665,51.4285714 L20.875,51.4285714 C18.665861,51.4285714 16.875,49.6377104 16.875,47.4285714 L16.875,22.2857143 C16.875,20.0765753 18.665861,18.2857143 20.875,18.2857143 Z" id="Path-9" fill="#00B16E"></path>
                    <mask id="mask-4" fill="white">
                        <use xlink:href="#path-3"></use>
                    </mask>
                    <g id="Shape">
                        <use fill="black" fill-opacity="1" filter="url(#filter-5)" xlink:href="#path-3"></use>
                        <use fill="#FFFFFF" fill-rule="evenodd" xlink:href="#path-3"></use>
                    </g>
                </g>
            </g>
        </g>
    </g>
</svg>

<svg xmlns="http://www.w3.org/2000/svg" xmlns:xlink="http://www.w3.org/1999/xlink" width="64" height="60"
     xmlns:v="https://vecta.io/nano">
    <defs>
        <path d="M4 0h41.5a4 4 0 0 1 4 4v25.188C49.5 30.74 48.24 32 46.688 32h-1.812a1 1 0 0 0-1 1v6.063a1 1 0 0 1-1.729.684l-6.975-7.432a1 1 0 0 0-.729-.316H4a4 4 0 0 1-4-4V4a4 4 0 0 1 4-4z"
              id="A"/>
        <path d="M39.212 38.856c-.108.01-.2-.07-.288-.152s-.122-.2-.118-.32c-.05-1.19-.012-2.013.204-3.177.126-.574.4-1.097.765-1.514.34-.4.706-.757 1.074-1.136l1.22-1.174c.815-.757.717-2.074-.303-2.695-.59-.358-1.29-.42-1.925-.17s-1.146.785-1.405 1.476a5.48 5.48 0 0 0-.204.713c-.08.33-.218.447-.523.405l-2.423-.325c-.126-.006-.244-.074-.32-.185s-.106-.254-.08-.392c.113-1.202.575-2.33 1.318-3.213s1.725-1.468 2.795-1.67c1.433-.353 2.93-.2 4.28.44 1.214.553 2.16 1.653 2.6 3.028.475 1.348.26 2.876-.564 3.997a13.61 13.61 0 0 1-1.957 2.132l-.68.67c-.37.337-.578.85-.562 1.38l-.044 1.503c.008.095-.018.176-.077.242-.09.1-.214.148-.34.133h-1.196l-1.246.003zm3.538 4c0 .694-.41 1.318-1.04 1.584a1.67 1.67 0 0 1-1.839-.372c-.482-.5-.627-1.228-.366-1.868s.877-1.058 1.56-1.058c.447 0 .877.18 1.193.502a1.73 1.73 0 0 1 .494 1.212h0z"
              id="B"/>
        <filter x="-8.9%" y="-5.1%" width="117.8%" height="120.6%" id="C">
            <feOffset dy="2" in="SourceAlpha"/>
            <feColorMatrix values="0 0 0 0 0 0 0 0 0 0 0 0 0 0 0 0 0 0 0.1 0"/>
        </filter>
    </defs>
    <g transform="translate(.5 .286)" fill-rule="evenodd">
        <use fill="#004b2e" transform="matrix(-1 0 0 1 49.5 0)" xlink:href="#A"/>
        <path d="M19.625 16H49.5v16H14.625V21a5 5 0 0 1 5-5z" fill="#000" opacity=".15"/>
        <path d="M20.875 18.286H59a4 4 0 0 1 4 4v25.768c0 1.864-1.51 3.375-3.375 3.375H57.25a1 1 0 0 0-1 1v5.702a1 1 0 0 1-1.713.702l-6.994-7.105a1 1 0 0 0-.713-.298H20.875a4 4 0 0 1-4-4V22.286a4 4 0 0 1 4-4z"
              fill="#00b16e"/>
        <use fill="#000" filter="url(#C)" xlink:href="#B"/>
        <use fill="#fff" xlink:href="#B"/>
    </g>
</svg>
